public/assets/icons8-javascript.svg

<svg xmlns="http://www.w3.org/2000/svg"  viewBox="0 0 50 50" width="50px" height="50px"><path d="M 6.667969 4 C 5.207031 4 4 5.207031 4 6.667969 L 4 43.332031 C 4 44.792969 5.207031 46 6.667969 46 L 43.332031 46 C 44.792969 46 46 44.796875 46 43.332031 L 46 6.667969 C 46 5.207031 44.796875 4 43.332031 4 Z M 6.667969 6 L 43.332031 6 C 43.703125 6 44 6.296875 44 6.667969 L 44 43.332031 C 44 43.703125 43.703125 44 43.332031 44 L 6.667969 44 C 6.296875 44 6 43.703125 6 43.332031 L 6 6.667969 C 6 6.296875 6.296875 6 6.667969 6 Z M 23 23 L 23 35.574219 C 23 37.503906 22.269531 38 21 38 C 19.671875 38 18.75 37.171875 18.140625 36.097656 L 15 38 C 15.910156 39.925781 18.140625 42 21.234375 42 C 24.65625 42 27 40.179688 27 36.183594 L 27 23 Z M 35.453125 23 C 32.046875 23 29.863281 25.179688 29.863281 28.042969 C 29.863281 31.148438 31.695313 32.617188 34.449219 33.789063 L 35.402344 34.199219 C 37.140625 34.960938 38 35.425781 38 36.734375 C 38 37.824219 37.171875 38.613281 35.589844 38.613281 C 33.707031 38.613281 32.816406 37.335938 32 36 L 29 38 C 30.121094 40.214844 32.132813 42 35.675781 42 C 39.300781 42 42 40.117188 42 36.683594 C 42 33.496094 40.171875 32.078125 36.925781 30.6875 L 35.972656 30.28125 C 34.335938 29.570313 33.625 29.109375 33.625 27.964844 C 33.625 27.039063 34.335938 26.328125 35.453125 26.328125 C 36.550781 26.328125 37.253906 26.792969 37.90625 27.964844 L 40.878906 26.058594 C 39.625 23.84375 37.878906 23 35.453125 23 Z"/></svg>

<svg xmlns="http://www.w3.org/2000/svg" xmlns:xlink="http://www.w3.org/1999/xlink" viewBox="0,0,256,256" width="50px" height="50px" fill-rule="nonzero"><g fill="#ffffff" fill-rule="nonzero" stroke="none" stroke-width="1" stroke-linecap="butt" stroke-linejoin="miter" stroke-miterlimit="10" stroke-dasharray="" stroke-dashoffset="0" font-family="none" font-weight="none" font-size="none" text-anchor="none" style="mix-blend-mode: normal"><g transform="scale(5.12,5.12)"><path d="M6.66797,4c-1.46094,0 -2.66797,1.20703 -2.66797,2.66797v36.66406c0,1.46094 1.20703,2.66797 2.66797,2.66797h36.66406c1.46094,0 2.66797,-1.20312 2.66797,-2.66797v-36.66406c0,-1.46094 -1.20312,-2.66797 -2.66797,-2.66797zM6.66797,6h36.66406c0.37109,0 0.66797,0.29688 0.66797,0.66797v36.66406c0,0.37109 -0.29687,0.66797 -0.66797,0.66797h-36.66406c-0.37109,0 -0.66797,-0.29687 -0.66797,-0.66797v-36.66406c0,-0.37109 0.29688,-0.66797 0.66797,-0.66797zM23,23v12.57422c0,1.92969 -0.73047,2.42578 -2,2.42578c-1.32812,0 -2.25,-0.82812 -2.85937,-1.90234l-3.14062,1.90234c0.91016,1.92578 3.14063,4 6.23438,4c3.42188,0 5.76563,-1.82031 5.76563,-5.81641v-13.18359zM35.45313,23c-3.40625,0 -5.58984,2.17969 -5.58984,5.04297c0,3.10547 1.83203,4.57422 4.58594,5.74609l0.95313,0.41016c1.73828,0.76172 2.59766,1.22656 2.59766,2.53516c0,1.08984 -0.82812,1.87891 -2.41016,1.87891c-1.88281,0 -2.77344,-1.27734 -3.58984,-2.61328l-3,2c1.12109,2.21484 3.13281,4 6.67578,4c3.625,0 6.32422,-1.88281 6.32422,-5.31641c0,-3.1875 -1.82812,-4.60547 -5.07422,-5.99609l-0.95312,-0.40625c-1.63672,-0.71094 -2.34766,-1.17187 -2.34766,-2.31641c0,-0.92578 0.71094,-1.63672 1.82813,-1.63672c1.09766,0 1.80078,0.46484 2.45313,1.63672l2.97266,-1.90625c-1.25391,-2.21484 -3,-3.05859 -5.42578,-3.05859z"></path></g></g></svg>
